images/icon_cart.svg

<svg fill="none" height="29" viewBox="0 0 32 29" width="32" xmlns="http://www.w3.org/2000/svg"><path d="m26.2009 29c-.6477-.0262-1.2594-.3052-1.7037-.7773s-.6858-1.0995-.6727-1.7477c.0131-.6481.2798-1.2653.7428-1.7191.463-.4537 1.0854-.7079 1.7337-.7079s1.2707.2542 1.7337.7079c.463.4538.7297 1.071.7428 1.7191.0131.6482-.2285 1.2756-.6728 1.7477s-1.0559.7511-1.7037.7773zm-19.44797-2.68c0-.53.15718-1.0482.45166-1.4889s.71305-.7842 1.20276-.9871c.4897-.2028 1.02859-.2559 1.54846-.1525.51989.1034.99739.3587 1.37219.7335s.6301.8523.7335 1.3722c.1034.5198.0503 1.0587-.1526 1.5484-.2028.4897-.5463.9083-.987 1.2027-.4407.2945-.95886.4517-1.48892.4517-.35211.0003-.70086-.0689-1.02624-.2034-.32538-.1346-.62105-.332-.87012-.5808-.24907-.2489-.44661-.5445-.58142-.8697-.13481-.3253-.20422-.674-.20422-1.0261zm3.80007-5.634c-.2595.0008-.5121-.0836-.71889-.2403-.20684-.1566-.35653-.3768-.42615-.6267l-4.83301-17.45499h-3.39294c-.313489 0-.614151-.12454-.835819-.3462-.221668-.22167-.346191-.52232-.346191-.8358 0-.313491.124523-.614137.346191-.835805s.52233-.34619919.835819-.34619919h4.281c.25949-.00081317.51203.08371429.71875.24056219.20672.156848.35608.377316.42517.627438l4.83297 17.454994h13.178l4.3831-10.04799h-14.6c-.1582.0046-.3156-.02259-.4631-.07994-.1475-.05736-.282-.14373-.3955-.25399-.1136-.11026-.2038-.24217-.2654-.38793s-.0934-.3024-.0934-.46065c0-.15824.0318-.31488.0934-.46064s.1518-.27767.2654-.38793c.1135-.11026.248-.19663.3955-.25399.1475-.05735.3049-.08453.4631-.07993h16.413c.1957-.00005.3882.04865.5604.14171.1721.09306.3184.22754.4255.39129.1079.16428.1735.35268.1909.54844.0175.19576-.0137.39279-.0908.57355l-5.405 12.412c-.0924.2106-.244.3898-.4365.5157s-.4175.1931-.6475.1933z" fill="#e8e8e8"/></svg>

<svg width="32" height="29" viewBox="0 0 32 29" fill="none" xmlns="http://www.w3.org/2000/svg">
<path d="M26.2009 29C25.5532 28.9738 24.9415 28.6948 24.4972 28.2227C24.0529 27.7506 23.8114 27.1232 23.8245 26.475C23.8376 25.8269 24.1043 25.2097 24.5673 24.7559C25.0303 24.3022 25.6527 24.048 26.301 24.048C26.9493 24.048 27.5717 24.3022 28.0347 24.7559C28.4977 25.2097 28.7644 25.8269 28.7775 26.475C28.7906 27.1232 28.549 27.7506 28.1047 28.2227C27.6604 28.6948 27.0488 28.9738 26.401 29H26.2009ZM6.75293 26.32C6.75293 25.79 6.91011 25.2718 7.20459 24.8311C7.49907 24.3904 7.91764 24.0469 8.40735 23.844C8.89705 23.6412 9.43594 23.5881 9.95581 23.6915C10.4757 23.7949 10.9532 24.0502 11.328 24.425C11.7028 24.7998 11.9581 25.2773 12.0615 25.7972C12.1649 26.317 12.1118 26.8559 11.9089 27.3456C11.7061 27.8353 11.3626 28.2539 10.9219 28.5483C10.4812 28.8428 9.96304 29 9.43298 29C9.08087 29.0003 8.73212 28.9311 8.40674 28.7966C8.08136 28.662 7.78569 28.4646 7.53662 28.2158C7.28755 27.9669 7.09001 27.6713 6.9552 27.3461C6.82039 27.0208 6.75098 26.6721 6.75098 26.32H6.75293ZM10.553 20.686C10.2935 20.6868 10.0409 20.6024 9.83411 20.4457C9.62727 20.2891 9.47758 20.0689 9.40796 19.819L4.57495 2.36401H1.18201C0.868521 2.36401 0.567859 2.23947 0.346191 2.01781C0.124523 1.79614 0 1.49549 0 1.18201C0 0.868519 0.124523 0.567873 0.346191 0.346205C0.567859 0.124537 0.868521 5.81268e-06 1.18201 5.81268e-06H5.46301C5.7225 -0.00080736 5.97504 0.0837201 6.18176 0.240568C6.38848 0.397416 6.53784 0.617884 6.60693 0.868006L11.4399 18.323H24.6179L29.001 8.27501H14.401C14.2428 8.27961 14.0854 8.25242 13.9379 8.19507C13.7904 8.13771 13.6559 8.05134 13.5424 7.94108C13.4288 7.83082 13.3386 7.69891 13.277 7.55315C13.2154 7.40739 13.1836 7.25075 13.1836 7.0925C13.1836 6.93426 13.2154 6.77762 13.277 6.63186C13.3386 6.4861 13.4288 6.35419 13.5424 6.24393C13.6559 6.13367 13.7904 6.0473 13.9379 5.98994C14.0854 5.93259 14.2428 5.90541 14.401 5.91001H30.814C31.0097 5.90996 31.2022 5.95866 31.3744 6.05172C31.5465 6.14478 31.6928 6.27926 31.7999 6.44301C31.9078 6.60729 31.9734 6.79569 31.9908 6.99145C32.0083 7.18721 31.9771 7.38424 31.9 7.565L26.495 19.977C26.4026 20.1876 26.251 20.3668 26.0585 20.4927C25.866 20.6186 25.641 20.6858 25.411 20.686H10.553Z" fill="#E8E8E8"/>
</svg>
